X:1
T: Susan's Half Sashay
C: R-112  Paul Milde  1995
M: C|
Z:
R: reel
K: D
FE | "D"D2A2 F2d2| "A"cde2 "D"d2f2| fed2 "G"B2d2| "A"A6 FE|
     "D"D2A2 F2d2| "A"cde2 "D"d2f2| fed2 "Em"g2f2| "A"e6 de|
     "D"f2fe fed2| "Em"e2ed B2A2| "D"A2d2 fed2| "Em"e4 "A"a3g|
     "D"fed2 d2A2| "G"BAB2 "D"d2ed| "Em"B2A2 "A"FDE2| "D"D6 z2|]
\
"D"F2A2 "A"ABA2| "D"D2E2 "Bm"F4| "A"A2AB "D"dBA2| "A"F2E2 "D"F2D2|
"D"F2A2 "A"ABA2| "D"F2A2 "G"d4| "D"d2de fed2| "D"f2"A"e2 "D"d4|
"D"F2A2 "A"ABA2| "D"D2E2 "Bm"F4| "D"F2FA "Em"BAF2| "A"E2E2 "D"F2D2|
"D"F2A2 "A"ABA2| "D"F2A2 "G"d4| "D"d2de fed2| "A"e2c2 "D"d2 |]
%
